svgs/charts/pie-chart-01.svg

<svg width="24" height="24" viewBox="0 0 24 24" fill="none" xmlns="http://www.w3.org/2000/svg">
<path d="M21.2104 15.8906C20.5742 17.395 19.5792 18.7208 18.3123 19.7519C17.0454 20.7829 15.5452 21.488 13.9428 21.8053C12.3405 22.1227 10.6848 22.0427 9.12055 21.5724C7.55627 21.102 6.13103 20.2556 4.96942 19.1072C3.80782 17.9588 2.94522 16.5433 2.45704 14.9845C1.96886 13.4257 1.86996 11.771 2.169 10.1652C2.46804 8.55934 3.1559 7.05119 4.17245 5.77259C5.189 4.49399 6.50329 3.48388 8.0004 2.83056M21.2392 8.17372C21.6395 9.14019 21.8851 10.1619 21.9684 11.2014C21.989 11.4582 21.9993 11.5866 21.9483 11.7023C21.9057 11.7989 21.8213 11.8903 21.7284 11.9405C21.6172 12.0006 21.4783 12.0006 21.2004 12.0006H12.8004C12.5204 12.0006 12.3804 12.0006 12.2734 11.9461C12.1793 11.8981 12.1028 11.8216 12.0549 11.7276C12.0004 11.6206 12.0004 11.4806 12.0004 11.2006V2.80056C12.0004 2.52269 12.0004 2.38376 12.0605 2.27254C12.1107 2.17964 12.2021 2.09525 12.2987 2.05265C12.4144 2.00166 12.5428 2.01195 12.7996 2.03254C13.839 2.11588 14.8608 2.36144 15.8272 2.76176C17.0405 3.26431 18.1429 4.0009 19.0715 4.92949C20.0001 5.85808 20.7367 6.96047 21.2392 8.17372Z" stroke="#1C1D20" stroke-width="1.5" stroke-linecap="round" stroke-linejoin="round"/>
</svg>

<svg fill="none" xmlns="http://www.w3.org/2000/svg" viewBox="0 0 24 24"><path d="M21.21 15.89A10 10 0 1 1 8 2.83m13.24 5.344a10 10 0 0 1 .728 3.027c.021.257.031.386-.02.501a.525.525 0 0 1-.22.239c-.11.06-.25.06-.528.06h-8.4c-.28 0-.42 0-.527-.055a.5.5 0 0 1-.218-.218C12 11.62 12 11.48 12 11.2V2.8c0-.278 0-.417.06-.528a.525.525 0 0 1 .239-.22c.115-.051.244-.041.5-.02a10 10 0 0 1 8.44 6.14Z" stroke="#1C1D20" stroke-width="1.5" stroke-linecap="round" stroke-linejoin="round"/></svg>
